ui/StatusQ/src/assets/img/icons/tiny/members.svg

<svg fill="none" height="16" viewBox="0 0 16 16" width="16" xmlns="http://www.w3.org/2000/svg"><path d="m4.625 10.6h2.75v-1.2h-2.75zm4.5 2.3h-6.25v1.2h6.25zm-6.25 0c-.15188 0-.275-.1231-.275-.275h-1.2c0 .8146.66038 1.475 1.475 1.475zm6.525-.275c0 .1519-.12312.275-.275.275v1.2c.81462 0 1.475-.6604 1.475-1.475zm-2.025-2.025c1.11838 0 2.025.9066 2.025 2.025h1.2c0-1.7811-1.44388-3.225-3.225-3.225zm-2.75-1.2c-1.78112 0-3.225 1.4439-3.225 3.225h1.2c0-1.1184.90662-2.025 2.025-2.025z" fill="#647084"/><path d="m11.25 9.4c-.3314 0-.6.26863-.6.6 0 .3314.2686.6.6.6zm.5 3.5c-.3314 0-.6.2686-.6.6s.2686.6.6.6zm-.5-2.3h.375v-1.2h-.375zm2.125 2.3h-1.625v1.2h1.625zm.275-.275c0 .1519-.1231.275-.275.275v1.2c.8146 0 1.475-.6604 1.475-1.475zm1.2 0c0-1.7811-1.4439-3.225-3.225-3.225v1.2c1.1184 0 2.025.9066 2.025 2.025z" fill="#a1abbd"/><g stroke-linejoin="round" stroke-width="1.2"><circle cx="6" cy="5" r="2" stroke="#647084"/><path d="m9.75 6.93182c.4253-.11395.801-.36504 1.0691-.71433.268-.34929.4133-.77725.4133-1.21752s-.1453-.86824-.4133-1.21753c-.2681-.34928-.6438-.60037-1.0691-.71432" stroke="#a1abbd" stroke-linecap="round"/></g></svg>

<svg width="16" height="16" viewBox="0 0 16 16" fill="none" xmlns="http://www.w3.org/2000/svg">
<path d="M4.625 10.6H7.375V9.4H4.625V10.6ZM9.125 12.9H2.875V14.1H9.125V12.9ZM2.875 12.9C2.72312 12.9 2.6 12.7769 2.6 12.625H1.4C1.4 13.4396 2.06038 14.1 2.875 14.1V12.9ZM9.4 12.625C9.4 12.7769 9.27688 12.9 9.125 12.9V14.1C9.93962 14.1 10.6 13.4396 10.6 12.625H9.4ZM7.375 10.6C8.49338 10.6 9.4 11.5066 9.4 12.625H10.6C10.6 10.8439 9.15612 9.4 7.375 9.4V10.6ZM4.625 9.4C2.84388 9.4 1.4 10.8439 1.4 12.625H2.6C2.6 11.5066 3.50662 10.6 4.625 10.6V9.4Z" fill="#647084"/>
<path d="M11.25 9.4C10.9186 9.4 10.65 9.66863 10.65 10C10.65 10.3314 10.9186 10.6 11.25 10.6V9.4ZM11.75 12.9C11.4186 12.9 11.15 13.1686 11.15 13.5C11.15 13.8314 11.4186 14.1 11.75 14.1V12.9ZM11.25 10.6H11.625V9.4H11.25V10.6ZM13.375 12.9H11.75V14.1H13.375V12.9ZM13.65 12.625C13.65 12.7769 13.5269 12.9 13.375 12.9V14.1C14.1896 14.1 14.85 13.4396 14.85 12.625H13.65ZM14.85 12.625C14.85 10.8439 13.4061 9.4 11.625 9.4V10.6C12.7434 10.6 13.65 11.5066 13.65 12.625H14.85Z" fill="#A1ABBD"/>
<circle cx="6" cy="5" r="2" stroke="#647084" stroke-width="1.2" stroke-linejoin="round"/>
<path d="M9.75 6.93182C10.1753 6.81787 10.551 6.56678 10.8191 6.21749C11.0871 5.8682 11.2324 5.44024 11.2324 4.99997C11.2324 4.5597 11.0871 4.13173 10.8191 3.78244C10.551 3.43316 10.1753 3.18207 9.75 3.06812" stroke="#A1ABBD" stroke-width="1.2" stroke-linecap="round" stroke-linejoin="round"/>
</svg>
